!!!!SEGMENT: pl-kk--kk-i-88--001-004_golabek-jakub--missa-1-quoniam.krn
!!!cenid: 17xx:2569
!!!COM: Gołąbek, Jakub
!!!COM-rismID: pe30008748
!!!CDT: 1739-1789/03/30
!!!CNT: Polish
!!!OPR: Missa 1
!!!OTL: Quoniam
!!!OMV: 004
!!!PDT:
!!!AGN: Sacred; Mass
!!!YEC: Copyright 2022 Narodowy Instytut Fryderyka Chopina (https://polishscores.org)
!!!YEM: License CC-BY-4.0 (https://creativecommons.org/licenses/by/4.0)
!!!SMS-siglum: PL-Kk
!!!SMS-shelfmark: Kk.I.88
!!!SMS-variant:
!!!SMS-altvar:
!!!SMS-shelfwork: 001-004 M
!!!NIFC-rismSourceID: 1001164072
!!!NIFC-rismChildID: 1001155167
!!!NIFC-islandoraID:
!!!URL-pdf-islandora: https://repozytorium.nifc.pl/islandora/object/pl-kk%3A3086/datastream/PDF/view
!!!URL-scan: https://polish.musicsources.pl/pl/lokalizacje/galeria/rekopisy/6148-missa/4 @EN{Scan on Polish Music Sources Website} @PL{Skany w portalu Dziedzictwo Muzyki Polskiej w otwartym dostępie}
!!!IIIF:
!!!ONB-nifc: UWAGA: C - f. 2r-3v; A - f. 10r-11v; T - f. 18r-19v; B - f. 26r-27v; B rip - f. 33r-34r. Proszę uwzględniać B rip. Części Mszy: 1. Kyrie, 2. Christe, 3. Et in terra, 4. Quoniam, 5. Sanctus, 6. Osanna, 7. Benedictus, 8. Agnus Dei, 9. Dona nobis
!!!OMD:
!!!AIN: 1 alto 2 bass 1 canto 1 tenor
!!!key: C
**kern	**text	**kern	**text	**kern	**text	**kern	**text	**kern	**text
*part5	*part5	*part4	*part4	*part3	*part3	*part2	*part2	*part1	*part1
*staff5	*staff5	*staff4	*staff4	*staff3	*staff3	*staff2	*staff2	*staff1	*staff1
*I"Baſso E ripieno	*	*I"Baſso	*	*I"Tenore	*	*I"Alto	*	*I"Canto	*
*I'B rip	*	*I'B	*	*I'T	*	*I'A	*	*I'S	*
*Ibass	*	*Ibass	*	*Itenor	*	*Ialto	*	*Icanto	*
*ICvox	*	*ICvox	*	*ICvox	*	*ICvox	*	*ICvox	*
*clefF4	*	*clefF4	*	*clefC4	*	*clefC3	*	*clefC1	*
*k[]	*	*k[]	*	*k[]	*	*k[]	*	*k[]	*
*C:	*	*C:	*	*C:	*	*C:	*	*C:	*
*M2/2	*	*M2/2	*	*M2/2	*	*M2/2	*	*M2/2	*
*met(c|)	*	*met(c|)	*	*met(c|)	*	*met(c|)	*	*met(c|)	*
=1	=1	=1	=1	=1	=1	=1	=1	=1	=1
4C/	Quo-	4C/	Quo-	4.c\	Quo-	4.g\	Quo-	4.ee\	Quo-
4G\	-ni-	4G\	-ni-	.	.	.	.	.	.
.	.	.	.	8B\	-ni-	8f\	-ni-	8dd\	-ni-
4c\	-am	4c\	-am	4G\	-am	4e\	-am	4cc\	-am
4G\	tu	4G\	tu	4B\	tu	4f\	tu	4dd\	tu
=2	=2	=2	=2	=2	=2	=2	=2	=2	=2
4c\	so-	4c\	so-	4.c\	so-	4.g\	so-	4.ee\	so-
4G\	.	4G\	.	.	.	.	.	.	.
.	.	.	.	8B\	.	8f\	.	8dd\	.
4C/	-lus	4C/	-lus	4G/	-lus	4e\	-lus	4cc\	-lus
4C/	tu	4C/	tu	4G/	tu	8e\L	tu	8cc\L	tu
.	.	.	.	.	.	8f\J	.	8dd\J	.
=3	=3	=3	=3	=3	=3	=3	=3	=3	=3
*	*	*	*	*2\right	*	*	*	*	*
2C/	so-	2C/	so-	2c\	so-	4g\	so-	4ee\	so-
.	.	.	.	.	.	8a\L	.	8ff\L	.
.	.	.	.	.	.	8g\J	.	8ee\J	.
4G\	.	4G\	.	4B\	.	4f\	.	4dd\	.
4c\	-lus	4c\	-lus	4c\	-lus	4e\	-lus	4cc\	-lus
=4	=4	=4	=4	=4	=4	=4	=4	=4	=4
4G\	San-	4G\	San-	4G/	S(an)-	4e\	San-	4cc\	San-
4G\	-ctus,	4G\	-ctus,	4G/	-ctus	4d\	-ctus	4b\	-ctus
4r	.	4r	.	4r	.	4r	.	4r	.
4G\	tu	4G\	tu	4G/	tu	8d\L	tu	8b\L	tu
.	.	.	.	.	.	8e\J	.	8cc\J	.
!LO:LB:g=original	!	!	!	!	!	!	!	!	!
=5	=5	=5	=5	=5	=5	=5	=5	=5	=5
*2\right	*	*2\right	*	*	*	*2\right	*	*2\right	*
2G\	so-	2G\	so-	2B\	so-	2f\	so-	2dd\	so-
2G\	-lus	2G\	-lus	2G/	-lus	4e\	.	4cc\	.
.	.	.	.	.	.	4d\	-lus	4b\	-us
!	!	!	!	!	!	!LO:LB:g=original	!	!LO:LB:g=original	!
=6	=6	=6	=6	=6	=6	=6	=6	=6	=6
4c\	Do-	4c\	Do-	4G/	Do-	4.e\	Do-	4.cc\	Do-
4G\	-mi-	4G\	-mi-	4B/	-mi-	.	.	.	.
.	.	.	.	.	.	8f\	-mi-	8dd\	-mi-
4C/	-nus	4C/	-nus	4c\	-nus	4g\	-nus	4ee\	-nus
4C/	tu	4C/	tu	4c\	tu	4g\	tu	4ee\	tu
!	!	!LO:LB:g=original	!	!LO:LB:g=original	!	!	!	!	!
=7	=7	=7	=7	=7	=7	=7	=7	=7	=7
4C/	so-	4C/	so-	4c\	So-	8g\L	so-	8ee\L	so-
.	.	.	.	.	.	8e\J	.	8cc\J	.
8BB/	-lus	8BB/	-lus	8d\	-lus	8a\	-lus	8ff\	-lus
8C/	al-	8C/	al-	8c\	al-	8g\	al-	8ee\	al-
4F\	-tiſ-	4F\	-tiſ-	4A/	-tiſ-	8g\L	-tiſ-	8ee\L	-tiſ-
.	.	.	.	.	.	8f\J	.	8dd\J	.
4F#X\	-si-	4F#X\	-si-	4A/	-si-	8f\L	-si-	8dd\L	-si-
.	.	.	.	.	.	8e\J	.	8cc\J	.
=8	=8	=8	=8	=8	=8	=8	=8	=8	=8
2G\	-mus	2G\	-mus	2G/	-mus	2d\	-mus	2b\	-mus
2r	.	2r	.	2r	.	2r	.	2r	.
=9	=9	=9	=9	=9	=9	=9	=9	=9	=9
4G\	Je-	4G\	Je-	1B	Je-	1f	Je-	1dd	Je-
4d\	.	4d\	.	.	.	.	.	.	.
4B\	.	4B\	.	.	.	.	.	.	.
4G\	.	4G\	.	.	.	.	.	.	.
=10	=10	=10	=10	=10	=10	=10	=10	=10	=10
4c\	.	4c\	.	1G	-su	1e	-su	1cc	-su
4G\	.	4G\	.	.	.	.	.	.	.
4E\	-su	4E\	-su	.	.	.	.	.	.
4C\	.	4C\	.	.	.	.	.	.	.
=11	=11	=11	=11	=11	=11	=11	=11	=11	=11
4F\	Chri-	4F\	Chri-	2A\	chri-	2f\	Chri-	2dd\	Chris-
4D\	.	4D\	.	.	.	.	.	.	.
4G\	.	4G\	.	2B\	.	2d\	.	2b\	.
4GG/	.	4GG/	.	.	.	.	.	.	.
=12	=12	=12	=12	=12	=12	=12	=12	=12	=12
2C/	-ste.	2C/	-ste.	2G/	-ste	2e\	-ste,	2cc\	-te
2G\	Cum	2G\	Cum	2G/	Cum	2d\	Cum	2b\	Cum
!LO:LB:g=original	!	!	!	!	!	!	!	!	!
=13	=13	=13	=13	=13	=13	=13	=13	=13	=13
4C\	San-	4C/	San-	2G/	San-	4e\	San-	4cc\	San-
4D\	.	4D/	.	.	.	4f\	.	4b\	.
4E\	.	4E/	.	4c\	-cto	2g\	-cto	4cc\	.
4F\	-cto	4F/	-cto	4B\	.	.	.	4dd\	-cto
!	!	!	!	!	!	!LO:LB:g=original	!	!LO:LB:g=original	!
=14	=14	=14	=14	=14	=14	=14	=14	=14	=14
4G\	Spi-	4G\	Spi-	4B\	Spi-	4g\	Spi-	4b\	Spi-
4A\	-ri-	4A\	-ri-	4A\	-ri-	4g\	-ri-	4cc\	-ri-
!	!	!LO:LB:g=original	!	!	!	!	!	!	!
=-	=-	=-	=-	=-	=-	=-	=-	=-	=-
4B\	-tu	4B\	-tu	4G\	-tu	4g\	-tu	4dd\	-tu
4G\	in	4G\	in	4B\	in	4f\	in	4b\	in
!	!	!	!	!LO:LB:g=original	!	!	!	!	!
=15	=15	=15	=15	=15	=15	=15	=15	=15	=15
4c\	glo-	4c\	glo-	4G/	glo-	4e\	glo-	4cc\	glo-
8G\	-ri-	8G\	-ri-	8G/	-ri-	8e\	-ri-	8cc\	-ri-
8G\	-a	8G\	-a	8G/	-a	8e\	-a	8cc\	-a
8F\L	De-	8F\L	De-	4G/	De-	4d\	De-	4b\	De-
8E\J	.	8E\J	.	.	.	.	.	.	.
8D\L	-i	8D\L	-i	4G/	-i	4e\	-i	4cc\	-i
8C\J	.	8C\J	.	.	.	.	.	.	.
=16	=16	=16	=16	=16	=16	=16	=16	=16	=16
4G\	Pa-	4G\	Pa-	4G/	Pa-	4d\	Pa-	4b\	Pa-
4GG/	-tris	4GG/	-tris	4G/	-tris	4d\	-tris	4b\	-tris
2r	.	2r	.	2r	.	2r	.	2r	.
=17	=17	=17	=17	=17	=17	=17	=17	=17	=17
4d\	a-	4d\	a-	1B	a-	1f	a-	1dd	a-
4c\	.	4c\	.	.	.	.	.	.	.
4B\	.	4B\	.	.	.	.	.	.	.
4G\	.	4G\	.	.	.	.	.	.	.
=18	=18	=18	=18	=18	=18	=18	=18	=18	=18
4c\	.	4c\	.	1G	.	1e	-men	1cc	-men
4G\	.	4G\	.	.	.	.	.	.	.
4E\	.	4E\	.	.	.	.	.	.	.
4C\	.	4C\	.	.	.	.	.	.	.
=19	=19	=19	=19	=19	=19	=19	=19	=19	=19
4F\	.	4F\	.	2A/	.	2f\	a-	2dd\	a-
4D\	.	4D\	.	.	.	.	.	.	.
4G\	.	4G\	.	2G/	.	2d\	.	2b\	.
4GG/	.	4GG/	.	.	.	.	.	.	.
=20	=20	=20	=20	=20	=20	=20	=20	=20	=20
2C/	-men	2C/	-men	2G/	-men	2e\	-men	2cc\	-men
2r	.	2r	.	2r	.	2r	.	2r	.
==	==	==;;	==	==;;	==	==;;	==	==;;	==
*-	*-	*-	*-	*-	*-	*-	*-	*-	*-
!!!system-decoration: [(s1,s2,s3,s4)]s5
!!!ENC: Berenika Jozajtis
!!!END: 2024-02-22
!!!EED: Marta Chmielewska
!!!EEV: 2024-04-29
